svgs/sharp-solid/prescription-bottle.svg

<svg xmlns="http://www.w3.org/2000/svg" viewBox="0 0 384 512"><!--! Font Awesome Pro 6.6.0 by @fontawesome - https://fontawesome.com License - https://fontawesome.com/license (Commercial License) Copyright 2024 Fonticons, Inc. --><path d="M0 0L384 0l0 96L0 96 0 0zM32 128l320 0 0 384L32 512l0-96 112 0 16 0 0-32-16 0L32 384l0-64 112 0 16 0 0-32-16 0L32 288l0-64 112 0 16 0 0-32-16 0L32 192l0-64z"/></svg>

<svg xmlns="http://www.w3.org/2000/svg" viewBox="0 0 384 512"><!--! Font Awesome Pro 6.4.2 by @fontawesome - https://fontawesome.com License - https://fontawesome.com/license (Commercial License) Copyright 2023 Fonticons, Inc. --><path d="M0 0H384V96H0V0zM32 128H352V512H32V416H144h16V384H144 32V320H144h16V288H144 32V224H144h16V192H144 32V128z"/></svg>
